web-magabank/image/home/icon-gateway.svg

<svg width="53" height="54" viewBox="0 0 53 54" fill="none" xmlns="http://www.w3.org/2000/svg">
<circle cx="26.5459" cy="26.802" r="25.9428" fill="#0D181D" stroke="#0181F4"/>
<path fill-rule="evenodd" clip-rule="evenodd" d="M34.0516 14.8929V16.6018C31.8924 14.9473 29.2588 14.0422 26.5459 14.0422C23.5594 14.0422 20.6668 15.1362 18.4001 17.1224L18.9438 17.7676C21.0592 15.9137 23.7587 14.8929 26.5459 14.8929C28.9285 14.8929 31.2444 15.6448 33.1892 17.0195H31.9667V17.8701H34.4686C34.6987 17.8701 34.8855 17.6796 34.8855 17.4448V14.8929H34.0516ZM33.0954 25.2253L31.5497 23.6486V19.1461C31.5497 18.9113 31.3629 18.7208 31.1327 18.7208H28.6308C28.4006 18.7208 28.2138 18.9113 28.2138 19.1461V20.246L26.8407 18.8454C26.6776 18.6791 26.4141 18.6791 26.2511 18.8454L19.9963 25.2253C19.9179 25.3048 19.8741 25.4133 19.8741 25.526V34.4578C19.8741 34.6925 20.0609 34.8831 20.2911 34.8831H24.8779H28.2138H32.8006C33.0308 34.8831 33.2176 34.6925 33.2176 34.4578V25.526C33.2176 25.4133 33.1738 25.3048 33.0954 25.2253ZM25.2949 34.0324V29.3539H27.7968V34.0324H25.2949ZM32.3836 34.0324H28.6308V28.9286C28.6308 28.6938 28.444 28.5032 28.2138 28.5032H24.8779C24.6477 28.5032 24.4609 28.6938 24.4609 28.9286V34.0324H20.7081V25.7021L26.5459 19.7475L28.336 21.5734C28.4552 21.6947 28.6341 21.7312 28.7905 21.6657C28.946 21.5998 29.0478 21.4446 29.0478 21.2727V19.5715H30.7157V23.8247C30.7157 23.9374 30.7595 24.0458 30.8379 24.1254L32.3836 25.7021V34.0324ZM37.8403 29.8277C37.7686 30.1076 37.6847 30.3883 37.5926 30.663L38.3815 30.9391C38.4808 30.6447 38.57 30.3436 38.6471 30.0438L37.8403 29.8277ZM37.5947 22.946L38.3836 22.6704C38.4829 22.9642 38.5717 23.2658 38.6488 23.5665L37.842 23.7813C37.7698 23.5014 37.6868 23.2203 37.5947 22.946ZM37.6631 20.9508L36.9225 21.3416C37.0534 21.6002 37.1764 21.8656 37.2874 22.131L38.0542 21.7967C37.9349 21.5126 37.8036 21.2276 37.6631 20.9508ZM36.9208 32.2665C37.0513 32.0096 37.1739 31.7442 37.2857 31.4775L38.0525 31.8118C37.9328 32.0981 37.8011 32.3826 37.661 32.6578L36.9208 32.2665ZM38.1514 28.1128C38.1205 28.4003 38.0788 28.6904 38.0271 28.9762L38.8473 29.1306C38.9023 28.8248 38.9474 28.5134 38.9803 28.2055L38.1514 28.1128ZM38.0279 24.6332L38.8481 24.4797C38.9032 24.7846 38.9478 25.096 38.9807 25.4048L38.1518 25.4975C38.1209 25.2091 38.0792 24.9182 38.0279 24.6332ZM39.047 26.3379L38.2135 26.3685C38.2189 26.5123 38.2214 26.6569 38.2214 26.8015C38.2214 26.9495 38.2185 27.0963 38.2135 27.2426L39.047 27.2728C39.0525 27.1167 39.0554 26.9602 39.0554 26.8019C39.0554 26.6467 39.0529 26.4919 39.047 26.3379ZM14.1114 25.3984C14.1443 25.0904 14.1894 24.7791 14.2448 24.4733L15.0646 24.6277C15.0129 24.9135 14.9712 25.2036 14.9404 25.4911L14.1114 25.3984ZM14.7098 22.6648C14.6109 22.9591 14.5213 23.2603 14.4442 23.5601L15.251 23.7762C15.3227 23.4967 15.4066 23.2156 15.4987 22.9408L14.7098 22.6648ZM15.0371 31.8071L15.8039 31.4728C15.9153 31.7382 16.0379 32.0036 16.1692 32.2622L15.4282 32.6531C15.2877 32.3762 15.1564 32.0913 15.0371 31.8071ZM14.8782 26.3613L14.0447 26.3311C14.0393 26.4872 14.0363 26.6437 14.0363 26.8019C14.0363 26.9572 14.0389 27.112 14.0447 27.266L14.8782 27.2353C14.8728 27.0916 14.8703 26.947 14.8703 26.8024C14.8703 26.6544 14.8732 26.5076 14.8782 26.3613ZM15.0392 21.792C15.1589 21.5058 15.2906 21.2213 15.4307 20.9461L16.1709 21.3374C16.0404 21.5943 15.9178 21.8597 15.806 22.1264L15.0392 21.792ZM14.9399 28.1064L14.111 28.1991C14.1439 28.5079 14.1885 28.8193 14.2436 29.1242L15.0638 28.9707C15.0125 28.6857 14.9708 28.3948 14.9399 28.1064ZM14.4425 30.0378L15.2494 29.8226C15.3215 30.1025 15.4045 30.3836 15.4966 30.6579L14.7077 30.934C14.6085 30.6401 14.5196 30.3385 14.4425 30.0378ZM26.5459 38.711C29.333 38.711 32.0325 37.6902 34.1479 35.8362L34.6916 36.4815C32.4249 38.4677 29.5323 39.5616 26.5459 39.5616C23.833 39.5616 21.1993 38.6566 19.0402 37.0021V38.711H18.2062V36.1591C18.2062 35.9243 18.393 35.7337 18.6232 35.7337H21.1251V36.5844H19.9025C21.8473 37.959 24.1632 38.711 26.5459 38.711Z" fill="white"/>
</svg>

<svg width="53" height="54" fill="none" xmlns="http://www.w3.org/2000/svg"><circle cx="26.546" cy="26.802" r="25.943" fill="#0D181D" stroke="#0181F4"/><path fill-rule="evenodd" clip-rule="evenodd" d="M34.052 14.893v1.709a12.342 12.342 0 00-7.506-2.56c-2.987 0-5.88 1.094-8.146 3.08l.544.646a11.537 11.537 0 017.602-2.875c2.383 0 4.698.752 6.643 2.127h-1.222v.85h2.502c.23 0 .416-.19.416-.425v-2.552h-.833zm-.957 10.332L31.55 23.65v-4.503a.421.421 0 00-.417-.425H28.63c-.23 0-.417.19-.417.425v1.1l-1.373-1.4a.41.41 0 00-.59 0l-6.255 6.38a.428.428 0 00-.122.3v8.932c0 .235.187.425.417.425h12.51c.23 0 .417-.19.417-.425v-8.932a.428.428 0 00-.123-.3zm-7.8 8.807v-4.678h2.502v4.678h-2.502zm7.089 0H28.63V28.93a.421.421 0 00-.417-.426h-3.336c-.23 0-.417.19-.417.426v5.103h-3.753v-8.33l5.838-5.955 1.79 1.826c.12.122.298.158.455.093a.426.426 0 00.257-.393v-1.701h1.668v4.253c0 .112.043.22.122.3l1.546 1.577v8.33zm5.456-4.204c-.071.28-.155.56-.247.835l.788.276c.1-.294.189-.595.266-.895l-.807-.216zm-.245-6.882l.789-.276c.099.294.188.596.265.896l-.807.215c-.072-.28-.155-.56-.247-.835zm.068-1.995l-.74.39c.13.26.253.525.364.79l.767-.334c-.12-.284-.25-.57-.39-.846zm-.742 11.316c.13-.257.253-.523.365-.79l.767.335c-.12.286-.252.57-.392.846l-.74-.392zm1.23-4.154c-.03.287-.072.577-.124.863l.82.155c.055-.306.1-.618.133-.925l-.829-.093zm-.123-3.48l.82-.153c.055.305.1.616.133.925l-.83.092c-.03-.288-.072-.579-.123-.864zm1.019 1.705l-.833.03a11.549 11.549 0 010 .875l.833.03a13.351 13.351 0 000-.935zm-24.936-.94c.033-.308.078-.619.134-.925l.82.155c-.052.285-.094.576-.125.863l-.829-.093zm.599-2.733c-.1.294-.189.595-.266.895l.807.216c.072-.28.156-.56.248-.835l-.79-.276zm.327 9.142l.767-.334c.111.265.234.53.365.79l-.74.39c-.141-.277-.273-.562-.392-.846zm-.159-5.446l-.833-.03a13.595 13.595 0 000 .935l.833-.03a11.54 11.54 0 010-.875zm.161-4.569c.12-.286.252-.57.392-.846l.74.391c-.13.257-.253.523-.365.79l-.767-.335zm-.1 6.314l-.828.093c.033.309.077.62.133.925l.82-.153a12.295 12.295 0 01-.124-.865zm-.496 1.932l.806-.215c.072.28.155.56.248.835l-.79.276c-.099-.294-.187-.596-.264-.896zm12.103 8.673c2.787 0 5.486-1.02 7.602-2.875l.544.645a12.364 12.364 0 01-8.146 3.08c-2.713 0-5.347-.904-7.506-2.559v1.709h-.834v-2.552c0-.235.187-.425.417-.425h2.502v.85h-1.223a11.513 11.513 0 006.644 2.127z" fill="#fff"/></svg>
